X: 21022
T: FOR A' THAT AND A' THAT -- Reel
R: reel
B: K\"ohler's Violin Repository, v.2, 1885 p.102 #2
F: http://www.archive.org/details/klersviolinrepos02rugg
Z: 2012 John Chambers <jc:trillian.mit.edu>
M: C|
L: 1/8
K: D
uf |\
d/d/d (dA) Bdeg | d/d/d (fd) B3e | d/d/d (dA) Bdeg | (fe)dB A2A :|
ug |\
(fg)af (ge)eg | (fd)ad B2Bg | (fg)af (ge)eg | (fe)dc A2Ag |
(fg)af (ge)eg | (fg)ad B2Bg | (fg)af (be)ag | (fe)dB A2"^D.C.""_Fine."A |]

%%sep 2 1 500

